!!!COM: Bach, Johann Sebastian
!!!OPR: Six Concerts Avec plusieurs ... le prince regnant d'Anhalt-Coethen
!!!OTL: Brandenburgische Konzerte F
!!!XEN: Brandenburg Concerto No. 1 in F major
!!!OMV: Movement 7.
!!!SCT: BWV 1046
!!!YEC: Copyright 1994, Center for Computer Assisted Research in the Humanities
!!!YEM: Rights to all derivative electronic formats reserved.
!!!YEM: Refer to licensing agreement for further details.
!! For the following instrumentation: Corno I & II, Oboes
!! Trio a 2 Corni e 3 Oboi all'unisono.  
**kern	**kern	**kern
*ICww	*ICbras	*ICbras
*Ioboe	*Icor	*Icor
!Oboi	!Corno II	!Corno I
!Tutti	!	!
*a3	*a1	*a1
*	*ITrd-4c-7	*ITrd-4c-7
*k[b-]	*k[]	*k[]
*M2/4	*M2/4	*M2/4
*MM78	*MM78	*MM78
*clefG2	*clefG2	*clefG2
*F:	*F:	*F:
*>[A,A,B,B]	*>[A,A,B,B]	*>[A,A,B,B]
*>A	*>A	*>A
=1-	=1-	=1-
8f/L	4a\	4cc\
8e/	.	.
8d/	8b-\L	8dd\L
8f/J	8a\J	8cc\J
=2	=2	=2
4g/	8g\L	8b-\L
.	8f\	8a\
8c/L	8g\	8b-\
8e/J	8c\J	8g\J
=3	=3	=3
8f/L	4f\	4a\
8a/	.	.
8f/	4a\	4cc\
8a/J	.	.
=4	=4	=4
4cc\	8g\L	8b-\L
.	8f\	8a\
8c/L	8g\	8b-\
8e/J	8c\J	8g\J
=5	=5	=5
8f/L	4f\	8a\L
8a/	.	8f\J
8f/	8a\L	4cc\
8a/J	8f\J	.
=6	=6	=6
8f/L	4cc\	8a\L
8a/	.	8f\J
8f/	8a\L	4ff\
8a/J	8f\J	.
=7	=7	=7
8f\L	16c/LL	8a\L
.	16A/	.
8a\	16c/	16g\LL
.	16f/JJ	16a\JJ
8cc\	8g\L	8b-\L
8ff\J	8f\J	8a\J
=8	=8	=8
16ee\LL	8c/L	16g\LL
16dd\	.	16f\
16ee\	16c/LL	16g\
16ff\JJ	16c/JJ	16a\JJ
8ee\L	8c/L	16g\LL
.	.	16a\
8cc\J	8g/J	16b-\
.	.	16g\JJ
=9	=9	=9
8f/L	4a\	4cc\
8e/	.	.
8d/	8b-\L	8dd\L
8f/J	8a\J	8cc\J
=10	=10	=10
4g/	8g\L	8b-\L
.	8f\	8a\
8c/L	8g\	8b-\
8e/J	8c\J	8g\J
=11	=11	=11
8f/L	4f\	4a\
8a/	.	.
8f/	4a\	4cc\
8a/J	.	.
=12	=12	=12
4cc\	8g\L	8b-\L
.	8f\	8a\
8c/L	8g\	8b-\
8e/J	8c\J	8g\J
=13	=13	=13
8f/L	4f\	8a\L
8a/	.	8f\J
8f/	8a\L	4cc\
8a/J	8f\J	.
=14	=14	=14
8f/L	4cc\	8a\L
8a/	.	8f\J
8f/	8a\L	4ff\
8a/J	8f\J	.
=15	=15	=15
8f\L	16c/LL	8a\L
.	16A/	.
8a\	16c/	16g\LL
.	16f/JJ	16a\JJ
8cc\	16g\LL	16b-\LL
.	16f\	16a\
8ff\J	16g\	16b-\
.	16f\JJ	16a\JJ
=16	=16	=16
2ee\	2c/	2g\
=||	=||	=||
*>B	*>B	*>B
8e/L	4c/	4g\
8cc/	.	.
8c/	8A/L	8f\L
8cc/J	8c/J	8g\J
=18	=18	=18
8f/L	8f/L	8a\L
8cc/	8c/	8g\
8c/	8f/	8a\
8cc/J	8A/J	8f\J
=19	=19	=19
8e/L	4c/	4g\
8cc/	.	.
8c/	4g\	4b-\
8cc/J	.	.
=20	=20	=20
8f/L	8f/L	8a\L
8cc/	8c/	8g\
8c/	8f/	8a\
8cc/J	8A/J	8f\J
=21	=21	=21
8e/L	4c/	8g\L
8g/	.	8c\J
8e/	8g\L	4b-\
8g/J	8c\J	.
=22	=22	=22
8f/L	4cc\	8a\L
8a/	.	8f\J
8f/	8a\L	8cc\L
8a/J	8f\J	16b-\LL
.	.	16cc\JJ
=23	=23	=23
16b-\LL	8b-\L	8dd\L
16a\	.	.
16b-\	8a\	8cc\
16cc\JJ	.	.
16dd\LL	8g\	8b-\
16ee\	.	.
16ff\	8f\J	8a\J
16dd\JJ	.	.
=24	=24	=24
16ee\LL	8c/L	16g\LL
16dd\	.	16f\
16ee\	16c/LL	16g\
16ff\JJ	16c/JJ	16a\JJ
16ee\LL	8c/L	16g\LL
16ff\	.	16a\
16gg\	8g/J	16b-\
16ff\JJ	.	16a\JJ
=25	=25	=25
8ee/L	4c/	4g\
8cc/	.	.
8c/	8A/L	8f\L
8cc/J	8c/J	8g\J
=26	=26	=26
8f/L	8f/L	8a\L
8cc/	8c/	8g\
8c/	8f/	8a\
8cc/J	8A/J	8f\J
=27	=27	=27
8e/L	4c/	4g\
8cc/	.	.
8c/	4g\	4b-\
8cc/J	.	.
=28	=28	=28
8f/L	8f/L	8a\L
8cc/	8c/	8g\
8c/	8f/	8a\
8cc/J	8A/J	8f\J
=29	=29	=29
8e/L	4c/	8g\L
8g/	.	8c\J
8e/	8g\L	4b-\
8g/J	8c\J	.
=30	=30	=30
8f/L	4cc\	8a\L
8a/	.	8f\
8f/	8a\L	8ff\
8a/J	8f\J	8cc\J
=31	=31	=31
8f\L	8c/L	16a\LL
.	.	16g\
8ff\J	8F/	16a\
.	.	16f\JJ
16eet\LL	8A/	16g\LL
16dd\JJ	.	16f\
8ee\J	8c/J	16g\
.	.	16a\JJ
=32	=32	=32
2ff\	2A/	2f\
==	==	==
*-	*-	*-
!! Menuetto da Capo sino allo Fine.
!!!CDT: 1685/3//-1750/7/28
!!!OCY: Deutschland
!!!ODE: His Royal Highness Christian Ludwig, Margrave of Brandenburg.
!!!ODT: 1717//
!!!OPC: ?Coethen; ?Cothen; ?Co2then
!!!PPR: Peters
!!!PDT: 1850
!!!PPP: Leipzig
!!!AGN: concerto grosso
!!!AST: baroque, orchestral
!!!AMT: simple duple
!!!SCA: Bach-Werke-Verzeichnis
!!!YOR: Bach Gesellschaft, xix,1
!!!YOY: 1871; although imprint says 1869
!!!AIN: cor; oboe
!!!EEV: 1.0
!!!RDT: 1994 February 19
!!!YER: 1994 October 22
!!!YEN: United States of America
!!!EFL: 7/7
!!!EED: W.B. Hewlett
!!!VTS: 3505882157
